projects/packages/backup/src/js/components/icons/cloud-done.svg

<svg fill="none" height="32" viewBox="0 0 32 32" width="32" xmlns="http://www.w3.org/2000/svg" xmlns:xlink="http://www.w3.org/1999/xlink"><mask id="a" height="14" maskUnits="userSpaceOnUse" width="20" x="6" y="9"><path clip-rule="evenodd" d="m22.125 14.3668c-.5667-2.875-3.0917-5.0333-6.125-5.0333-2.4083 0-4.5 1.3667-5.5417 3.3667-2.5083.2666-4.4583 2.3916-4.4583 4.9666 0 2.7584 2.24167 5 5 5h10.8333c2.3 0 4.1667-1.8666 4.1667-4.1666 0-2.2-1.7083-3.9834-3.875-4.1334zm-.2917 6.6334h-10.8333c-1.84167 0-3.33333-1.4917-3.33333-3.3334 0-1.7083 1.275-3.1333 2.96663-3.3083l.8917-.0917.4167-.7916c.7916-1.525 2.3416-2.475 4.0583-2.475 2.1833 0 4.0667 1.55 4.4917 3.6916l.25 1.25 1.275.0917c1.3.0833 2.3166 1.175 2.3166 2.4667 0 1.375-1.125 2.5-2.5 2.5zm-9.2416-4.925 1.7416 1.7416 3.8334-3.8333 1.175 1.175-5.0084 5.0083-2.9166-2.9166z" fill="#fff" fill-rule="evenodd"/></mask><rect fill="#008710" height="32" rx="4" width="32"/><g mask="url(#a)"><path d="m6 6h20v20h-20z" fill="#fff"/></g></svg>

<svg width="32" height="32" viewBox="0 0 32 32" fill="none" xmlns="http://www.w3.org/2000/svg">
<rect width="32" height="32" rx="4" fill="#008710"/>
<mask id="mask0_3026_4944" style="mask-type:luminance" maskUnits="userSpaceOnUse" x="6" y="9" width="20" height="14">
<path fill-rule="evenodd" clip-rule="evenodd" d="M22.125 14.3668C21.5583 11.4918 19.0333 9.3335 16 9.3335C13.5917 9.3335 11.5 10.7002 10.4583 12.7002C7.95 12.9668 6 15.0918 6 17.6668C6 20.4252 8.24167 22.6668 11 22.6668H21.8333C24.1333 22.6668 26 20.8002 26 18.5002C26 16.3002 24.2917 14.5168 22.125 14.3668ZM21.8333 21.0002H11C9.15833 21.0002 7.66667 19.5085 7.66667 17.6668C7.66667 15.9585 8.94167 14.5335 10.6333 14.3585L11.525 14.2668L11.9417 13.4752C12.7333 11.9502 14.2833 11.0002 16 11.0002C18.1833 11.0002 20.0667 12.5502 20.4917 14.6918L20.7417 15.9418L22.0167 16.0335C23.3167 16.1168 24.3333 17.2085 24.3333 18.5002C24.3333 19.8752 23.2083 21.0002 21.8333 21.0002ZM12.5917 16.0752L14.3333 17.8168L18.1667 13.9835L19.3417 15.1585L14.3333 20.1668L11.4167 17.2502L12.5917 16.0752Z" fill="white"/>
</mask>
<g mask="url(#mask0_3026_4944)">
<rect x="6" y="6" width="20" height="20" fill="white"/>
</g>
</svg>
